X: 135015
T: SIX MILE BRIDGE
Q: "Irish Reel."
R: Reel.
%R: reel
B: James Kerr "Merry Melodies" v.1 p.35 s.0 #15
Z: 2016 John Chambers <jc:trillian.mit.edu>
M: 2/4
L: 1/16
K: D
|: (uAG) |\
FDFA d2fd | d2fd ecAG |\
FDFA d2(fd) | ecAF G2 ::\
(de) |\
f2fd g2ge | a2ag (fe)de |
f2fd g2ge | a2af g2fg |\
abaf gage | fgfd ecAG |\
FDFA d2(fd) | ecAF G2 :|

%%sep 1 1 500
%%sep 1 1 500

